shield-account-outline.svg

<svg fill="currentColor" viewBox="0 0 24 24"><path d="M12 1 3 5v6c0 5.55 3.84 10.74 9 12 5.16-1.26 9-6.45 9-12V5zm0 2.18 7 3.12v4.92c0 1.7-.5 3.43-1.35 4.95C16 14.94 13.26 14.5 12 14.5s-4 .44-5.65 1.67C5.5 14.65 5 12.92 5 11.22V6.3zM12 6a3.5 3.5 0 0 0-3.5 3.5A3.5 3.5 0 0 0 12 13a3.5 3.5 0 0 0 3.5-3.5A3.5 3.5 0 0 0 12 6m0 2a1.5 1.5 0 0 1 1.5 1.5A1.5 1.5 0 0 1 12 11a1.5 1.5 0 0 1-1.5-1.5A1.5 1.5 0 0 1 12 8m0 8.5c1.57 0 3.64.61 4.53 1.34C15.29 19.38 13.7 20.55 12 21c-1.7-.45-3.29-1.62-4.53-3.16.9-.73 2.96-1.34 4.53-1.34"/></svg>

<svg  viewBox="0 0 24 24" fill="currentColor"><path  d="M12,1L3,5V11C3,16.55 6.84,21.74 12,23C17.16,21.74 21,16.55 21,11V5L12,1M12,3.18L19,6.3V11.22C19,12.92 18.5,14.65 17.65,16.17C16,14.94 13.26,14.5 12,14.5C10.74,14.5 8,14.94 6.35,16.17C5.5,14.65 5,12.92 5,11.22V6.3L12,3.18M12,6A3.5,3.5 0 0,0 8.5,9.5A3.5,3.5 0 0,0 12,13A3.5,3.5 0 0,0 15.5,9.5A3.5,3.5 0 0,0 12,6M12,8A1.5,1.5 0 0,1 13.5,9.5A1.5,1.5 0 0,1 12,11A1.5,1.5 0 0,1 10.5,9.5A1.5,1.5 0 0,1 12,8M12,16.5C13.57,16.5 15.64,17.11 16.53,17.84C15.29,19.38 13.7,20.55 12,21C10.3,20.55 8.71,19.38 7.47,17.84C8.37,17.11 10.43,16.5 12,16.5Z"/></svg>
